X: 14172
T: From The Pink
R: barndance
M: 4/4
K: Cmajor
E2 F2 G2 E2|C2 D2 E2 C2|E2 F2 G2 E2|D2 C2 D4|
E2 F2 G2 E2|C2 D2 E2 C2|c2 B2 A2 B2|c6 z2:|
F2 E2 D2 C2|C2 B,2 C4|A,2 B,2 C4|D2 E2 F4|
E2 F2 G2 A2|G2 F2 E4|e2 d2 FE C2|c4 A2 HG2||

